X: 4
T: Zheyizao zoule shenhuir jian
L: 1/16
M: 2/4
K: F
c2 c2c4 [I:setbarnb 1]| 
c2 c2 G2 G D | 
G2 G c G F D C | 
G8 | 
c2 c2c4 | 
c2 c2 G2 G D | 
G2 G c G F D A, | 
C8 |]

@@@ Tune index: 8878
